X: 7583
T: Codd's Grove
R: reel
M: 4/4
K: Fmajor
FDCF DCA,D|CA,FA, CDFG|AF~F2 dFcF|EFGA BCEG|
FDCF DCA,D|CA,FA, CDFG|AF (3A=Bc fcAF|1 EFGE ~F3E:|2 EFGE ~F2Ac||
|:fcAF CAFC|DAFD CAFC|DF~F2 DFCA,|CFAF GABc|
facf afcA|FADF CFAF|DFBF dFBF|1 CFFG ~F2Ac:|2 CFFG ~F3E||

